X:1
T:Rimsky-Korsakov harmonic exercises 8-
T:Rimsky-Korsakov harmonic exercises 8-9
T:"Practical Manual of Harmony" (1885)
T:Realizations by S. Shchetnikov
%%score { ( 1 2 ) | ( 3 4 ) }
L:1/8
M:2/2
K:C
V:1 treble nm="Piano" snm="Pno."
V:2 treble 
V:3 bass 
V:4 bass 
V:1
 z4""[Q:1/2=80]"^Сadences""^Examples by Rimsky-Korsakov:""_C:" c4 |"" c4"" B4 |"" c8 |] %3
 z4"""_C:" c4 |"" c4"" d4 |"" e8 |][M:3/2] z8"""_a:" A4 |"" A4 c4"" B4 |"" A12 |] z8"""_a:" A4 | %10
"" A4"" ^G8 |"" A12 |]"""_C:" c4"" c4"" B4 |"" c12 |] %14
[M:3/1]"""^Passing six-four chords I⁶₄, V⁶₄"[Q:1/2=150]"^Examples by Rimsky-Korsakov:""_C:" c8"" B8"" c8 |] %15
"" f8"" e8"" f8 |]"" c8"" c8"" c8 |][K:E][M:2/2][Q:1/2=90]"^\n" z8 | z8 | z8 | z8 | z8 | z8 | z8 | %24
 z8 |]"""_E:""^Realization 8.1" G4"" B4 |"" c4"" B4 |"" A4"" G4 |"""" F8 |"" E4"" F4 |"" G4"" A4 | %31
"" G4"" F4 |"" E8 |] %33
[K:C]"""""^Authentic and plagal half cadence""^Examples by Rimsky-Korsakov:""_C:" c8 |"" B8 |] %35
"""""_a:" A8 |"" ^G8 |][M:3/2]"""_C:" e4"""" f8 |"" d12 |]"""_a:" e4"" d4"" f4 |"" e12 |] %41
[M:2/2] x4"""_C:" e4 |"" f8 |] x4"""_a:" B4 |"" d8 |] %45
"""^Example (a) by Rimsky-Korsakov:""_C:" c4"" B4 |"" c4"" A4 |"" G4"" c4 |"" B8 |"" d4"" e4 | %50
"" f4"" d4 |"" e4"" d4 |"" c8 |][M:3/2]"""^Example (b) by Rimsky-Korsakov:""_a:" A4"" B4"" c4 | %54
"" B4"" c4"" d4 |"" c4"" B4"" c4 |"" d12 |"" f4"" d4"" e4 |"" c4"" d4"" c4 |"" d4"" c4"" B4 | %60
"" A12 |][K:E][M:2/2]"""^Exercise: two own compositions.\nRealization (a): \n""_E:" e4"" c4 | %62
"""" B8 |"" G4 E4 |"" F8 |"" B4"" G4 |"" c4"" B4 |"" A4"" F4 |"" E8 |] %69
[K:C][M:3/2]"""^Realization (b):""_a:" A4"" B4"" A4 |"" ^G4 B4"" c4 |"" d8"" e4 |"" f12 | %73
"" f4"" e4"" d4 |"" c4"""" A8 |"" A8"" ^G4 |"" A12 |] %77
[M:2/1]"""^Leap on the fourth and fifth""^Examples by Rimsky-Korsakov:""_C:" (f8"" c8) |] %78
"" (f8"" c8) |]"" (c8"" g8) |]"" (c8"" G8) |]"" (c8"" G8) |]"" (G8"" d8) |]"" c8"" B8 |] %84
"" c8"" d8 |]"" A8"" c8 |]"" c8"" c8 |] %87
[M:2/2]"""^Example 9 (first variant) by Rimsky-Korsakov:""_C:" E4 G4 |"" c4"" c4 |"" G4"" E4 | %90
"" F4"" G4 |"" A4"" G4 |"" G4"" c4 |"" c4"" B4 |"" c8 |] %95
"""^Example 9 (second variant) by Rimsky-Korsakov:""_C:" E4"" G4 |"" c4"" c4 |"" G4"" E4 | %98
"" F4"" G4 |"" A4"" G4 |"" G4 c4 |"" c4"" B4 |"" c8 |][K:Bb]"^Exercise 9.1" B4 d4 | f4 B4 | e4 c4 | %106
 d4 c4 | B4 e4 | d4 B4 | B4 A4 | B8 |]"""^Realization 9.1""_B♭:" B4 d4 |"" f4"" B4 |"" e4"" c4 | %114
"" d4"" c4 |"" B4"" e4 |"" d4"" B4 |"" B4"" A4 |"" B8 |] %119
V:2
 z4 F4 | G8 | G8 |] z4 F4 | E4 G4 | G8 |][M:3/2] z8 F4 | E4 A4 ^G4 | A12 |] z8 D4 | E12 | E12 |] %12
 F4 G8 | G12 |][M:3/1] G8 G8 G8 |] F8 G8 A8 |] F8 G8 A8 |][K:E][M:2/2] x8 | x8 | x8 | x8 | x8 | %22
 x8 | x8 | x8 |] E8 | E8 | E8 | F4 D4 | E4 D4 | E8 | E4 D4 | B,8 |][K:C] G8 | G8 |] E8 | E8 |] %37
[M:3/2] G4 A4 F4 | G12 |] A12 | ^G12 |][M:2/2] x4 G4 | A8 |] x4 ^G4 | A8 |] G8 | G4 F4 | E4 G4 | %48
 G8 | G8 | F4 G4 | G8 | E8 |][M:3/2] E12 | E8 D4 | E12 | F12 | A8 ^G4 | E4 F4 E4 | D4 E8 | C12 |] %61
[K:E][M:2/2] G4 E4 | E4 D4 | E4 B,4 | D8 | F4 E4 | E8 | E4 D4 | B,8 |][K:C][M:3/2] E12 | %70
 E4 ^G4 A4 | A8 ^G4 | A12 | A12 | A8 F4 | E12 | E12 |][M:2/1] F8 G8 |] A8 G8 |] G8 G8 |] F8 E8 |] %81
 F8 G8 |] E8 G8 |] G8 G8 |] E8 G8 |] F8 G8 |] F8 E8 |][M:2/2] C4 E4 | F4 E4 | D4 C4 | C8 | C4 B,4 | %92
 C8 | E4 D4 | E8 |] C4 D4 | C4 F4 | G4 C4 | C8 | C4 D4 | C4 E4 | F4 G4 | G8 |][K:Bb] x8 | x8 | x8 | %106
 x8 | x8 | x8 | x8 | x8 |] F8 | F8 | E4 F4 | F4 A4 | F4 E4 | F8 | F8 | F8 |] %119
V:3
 z4 C4 | E4 D4 | E8 |] z4 A,4 | G,4 B,4 | C8 |][M:3/2] z8 D4 | C4 E8 | C12 |] z8 A,4 | C4 B,8 | %11
 C12 |] C4 E4 D4 | E12 |][M:3/1] E8 D8 C8 |] C8 C8 C8 |] C8 E8 F8 |] %17
[K:E][M:2/2]"^Exercise 8.1" E,4 G,,4 | A,,4 B,,4 | C,4 E,4 | D,4 B,,4 | G,4 F,4 | E,4 C,4 | B,,8 | %24
 E,8 |] B,8 | A,4 G,4 | A,4 B,4 | B,8 | B,8 | B,4 A,4 | B,8 | G,8 |][K:C] E8 | D8 |] A,4 C4 | %36
 B,8 |][M:3/2] C12 | B,12 |] C4 D8 | B,12 |][M:2/2] x4 C4 | C8 |] x4 E4 | F8 |] E4 D4 | C4 C4 | %47
 C8 | D8 | D4 C4 | C4 D4 | C4 B,4 | C8 |][M:3/2] C4 B,4 A,4 | B,4 A,4 A,4 | A,4 ^G,4 A,4 | A,12 | %57
 D8 B,4 | A,4 A,8 | A,8 ^G,4 | A,12 |][K:E][M:2/2] B,4 A,4 | B,8 | B,4 G,4 | B,8 | D4 B,4 | %66
 A,4 B,4 | C4 B,4 | G,8 |][K:C][M:3/2] C4 B,4 C4 | B,4 E8 | D8 B,4 | D12 | D4 C4 D4 | E8 D4 | %75
 C8 B,4 | C12 |][M:2/1] C8 E8 |] C8 C8 |] E8 D8 |] C8 C8 |] A,8 C8 |] C8 D8 |] (G,8 D8) |] %84
 (G,8 D8) |] (C8 G,8) |] (C8 G,8) |][M:2/2] G,4 C4 | C4 G,4 | G,4 G,4 | F,4 E,4 | F,4 D,4 | %92
 E,4 F,4 | G,8 | G,8 |] G,4 B,4 | G,4 A,4 | C4 G,4 | A,4 G,4 | F,4 D,4 | E,4 G,4 | C4 D4 | E8 |] %103
[K:Bb] z8 | z8 | z8 | z8 | z8 | z8 | z8 | z8 |] D4 B,4 | C4 D4 | B,4 C4 | B,4 F4 | D4 B,4 | B,8 | %117
 D4 C4 | D8 |] %119
V:4
 z4 A,,4 | G,,8 | C,8 |] z4 F,4 | G,4 G,,4 | C,8 |][M:3/2] z8 D,4 | E,8 E,,4 | A,,12 |] z8 F,4 | %10
 E,8 E,,4 | A,,12 |] A,,4 G,,8 | C,12 |][M:3/1] C,8 D,8 E,8 |] A,8 G,8 F,8 |] A,8 G,8 F,8 |] %17
[K:E][M:2/2] x8 | x8 | x8 | x8 | x8 | x8 | x8 | x8 |] E,4 G,,4 | A,,4 B,,4 | C,4 E,4 | D,4 B,,4 | %29
 G,4 F,4 | E,4 C,4 | B,,8 | E,8 |][K:C] C,4 E,4 | G,8 |] C,4 A,,4 | E,8 |][M:3/2] C,4 F,,4 A,,4 | %38
 G,,12 |] A,4 F,4 D,4 | E,12 |][M:2/2] x4 C,4 | F,8 |] x4 E,4 | D,8 |] C,4 D,4 | E,4 F,4 | %47
 C,4 E,4 | G,8 | B,,4 C,4 | A,,4 B,,4 | C,4 G,,4 | C,8 |][M:3/2] A,4 ^G,4 A,4 | ^G,4 A,4 F,4 | %55
 A,4 E,4 A,4 | D,12 | D,4 F,4 E,4 | A,4 D,4 E,4 | F,4 E,8 | A,,12 |][K:E][M:2/2] E,4 A,4 | %62
 G,4 F,4 | E,8 | B,,8 | B,,4 E,4 | A,,4 G,,4 | A,,4 B,,4 | E,8 |][K:C][M:3/2] A,4 ^G,4 A,4 | %70
 E,8 A,4 | F,8 E,4 | D,12 | D,4 E,4 F,4 | A,4 C,4 D,4 | E,12 | A,,12 |][M:2/1] A,,8 C,8 |] %78
 F,8 E,8 |] C,8 B,,8 |] A,,8 C,8 |] F,8 E,8 |] C,8 B,,8 |] E,8 G,8 |] C,8 B,,8 |] F,8 E,8 |] %86
 A,,8 C,8 |][M:2/2] C,8 | A,,4 C,4 | B,,4 C,4 | A,,4 G,,4 | F,,4 G,,4 | C,4 A,,4 | G,,8 | C,8 |] %95
 C,4 G,4 | E,4 F,4 | E,4 C,4 | F,4 E,4 | F,4 B,,4 | C,8 | A,,4 G,,4 | C,8 |][K:Bb] x8 | x8 | x8 | %106
 x8 | x8 | x8 | x8 | x8 |] B,8 | A,4 B,4 | G,4 A,4 | B,4 F,4 | B,,4 G,,4 | B,,4 D,4 | F,8 | B,,8 |] %119

